icons/lines/tree.svg

<svg xmlns="http://www.w3.org/2000/svg" width="24" height="24" viewBox="0 0 24 24" fill="none" stroke="currentColor" stroke-width="2" stroke-linecap="round" stroke-linejoin="round" >
  <path d="M16.1698 10.06H7.82982C6.64982 10.06 6.23983 9.27 6.92983 8.31L11.0998 2.47001C11.5898 1.77001 12.4099 1.77001 12.8899 2.47001L17.0598 8.31C17.7598 9.27 17.3498 10.06 16.1698 10.06Z"/>
  <path d="M17.5898 18H6.41986C4.83986 18 4.29985 16.95 5.22985 15.67L9.21984 10.06H14.7899L18.7798 15.67C19.7098 16.95 19.1698 18 17.5898 18Z"/>
  <path d="M12 22V18"/>
  </svg>

<svg xmlns="http://www.w3.org/2000/svg" width="24" height="24" viewBox="0 0 24 24" fill="none" stroke="currentColor" stroke-width="2" stroke-linecap="round" stroke-linejoin="round">
  <path d="M12 22v-4" />
  <path d="m14.79 10.06 3.99 5.61c.93 1.28.39 2.33-1.19 2.33H6.42c-1.58 0-2.12-1.05-1.19-2.33l3.99-5.61" />
  <path d="M7.83 10.06c-1.18 0-1.59-.79-.9-1.75l4.17-5.84c.49-.7 1.31-.7 1.79 0l4.17 5.84c.7.96.29 1.75-.89 1.75z" />
</svg>
